packages/assets/static/images/icons/books.svg

<svg width="24" height="24" viewBox="0 0 24 24" xmlns="http://www.w3.org/2000/svg">
<path d="M20.9674 18.6138L17.8559 3.82C17.8156 3.62654 17.7376 3.44294 17.6261 3.27974C17.5147 3.11654 17.3722 2.97697 17.2066 2.86903C17.0411 2.7611 16.8559 2.68693 16.6616 2.65079C16.4674 2.61465 16.2679 2.61725 16.0746 2.65844L11.6862 3.60157C11.298 3.68656 10.9591 3.92138 10.7432 4.25495C10.5272 4.58852 10.4517 4.99386 10.5331 5.38282L13.6446 20.1766C13.714 20.5141 13.8974 20.8174 14.1641 21.0356C14.4308 21.2538 14.7644 21.3736 15.109 21.3747C15.2155 21.3745 15.3217 21.3632 15.4259 21.3409L19.8143 20.3978C20.2029 20.3126 20.5422 20.0773 20.7582 19.7432C20.9741 19.409 21.0494 19.0031 20.9674 18.6138ZM12.0002 5.07625C12.0002 5.07063 12.0002 5.06782 12.0002 5.06782L16.3877 4.13032L16.6999 5.61813L12.3124 6.56219L12.0002 5.07625ZM12.6209 8.02657L17.0102 7.08438L17.3234 8.575L12.9377 9.51813L12.6209 8.02657ZM13.2434 10.9863L17.6327 10.0431L18.8796 15.9719L14.4902 16.915L13.2434 10.9863ZM19.5002 18.9316L15.1127 19.8691L14.8006 18.3813L19.1881 17.4372L19.5002 18.9231C19.5002 18.9288 19.5002 18.9316 19.5002 18.9316ZM9.00024 3.37469H4.50024C4.10242 3.37469 3.72089 3.53273 3.43958 3.81403C3.15828 4.09534 3.00024 4.47687 3.00024 4.87469V19.8747C3.00024 20.2725 3.15828 20.654 3.43958 20.9354C3.72089 21.2167 4.10242 21.3747 4.50024 21.3747H9.00024C9.39807 21.3747 9.7796 21.2167 10.0609 20.9354C10.3422 20.654 10.5002 20.2725 10.5002 19.8747V4.87469C10.5002 4.47687 10.3422 4.09534 10.0609 3.81403C9.7796 3.53273 9.39807 3.37469 9.00024 3.37469ZM4.50024 4.87469H9.00024V6.37469H4.50024V4.87469ZM4.50024 7.87469H9.00024V16.8747H4.50024V7.87469ZM9.00024 19.8747H4.50024V18.3747H9.00024V19.8747Z"/>
</svg>

<svg viewBox="0 0 24 24" xmlns="http://www.w3.org/2000/svg" aria-hidden="true" fill="currentColor"><path d="M20.967 18.614 17.856 3.82a1.5 1.5 0 0 0-1.781-1.162l-4.389.944a1.507 1.507 0 0 0-1.153 1.78l3.112 14.795a1.5 1.5 0 0 0 1.78 1.164l4.39-.943a1.51 1.51 0 0 0 1.152-1.784M12 5.076v-.008l4.388-.938.312 1.488-4.388.944zm.62 2.95 4.39-.942.313 1.491-4.385.943zm.623 2.96 4.39-.943 1.247 5.929-4.39.943zm6.257 7.946-4.387.937-.312-1.488 4.387-.944.312 1.486zM9 3.375H4.5a1.5 1.5 0 0 0-1.5 1.5v15a1.5 1.5 0 0 0 1.5 1.5H9a1.5 1.5 0 0 0 1.5-1.5v-15a1.5 1.5 0 0 0-1.5-1.5m-4.5 1.5H9v1.5H4.5zm0 3H9v9H4.5zm4.5 12H4.5v-1.5H9z"/></svg>
